img/contacts/icon/phone.svg

<svg width="48" height="48" viewBox="0 0 48 48" fill="none" xmlns="http://www.w3.org/2000/svg">
<path d="M10.0004 19.7211C13.8332 28.0689 20.6532 34.7059 29.1323 38.3039L30.4915 38.9095C33.6011 40.2949 37.2566 39.2423 39.1533 36.4153L40.9295 33.7679C41.5069 32.9072 41.3311 31.7479 40.5244 31.097L34.5007 26.2375C33.6159 25.5237 32.3149 25.6899 31.6381 26.6033L29.7746 29.1178C24.993 26.7591 21.1109 22.877 18.7522 18.0954L21.2667 16.2319C22.18 15.5551 22.3463 14.2541 21.6325 13.3693L16.7728 7.3454C16.1221 6.53883 14.9631 6.3629 14.1023 6.94004L11.4366 8.72743C8.59195 10.6348 7.54519 14.3205 8.96266 17.4384L9.99883 19.7177L10.0004 19.7211Z" fill="#203239"/>
</svg>

<svg xmlns="http://www.w3.org/2000/svg" fill="none" viewBox="0 0 48 48"><path fill="#203239" d="M10 19.721a36.932 36.932 0 0 0 19.132 18.583l1.36.605a7 7 0 0 0 8.661-2.494l1.776-2.647a2 2 0 0 0-.405-2.671l-6.023-4.86a2 2 0 0 0-2.863.366l-1.863 2.515a24.28 24.28 0 0 1-11.023-11.023l2.515-1.863a2 2 0 0 0 .366-2.863l-4.86-6.024a2 2 0 0 0-2.67-.405l-2.666 1.787a7 7 0 0 0-2.474 8.711l1.036 2.28.001.003z"/></svg>
